X:13
T:Walter Douglas, MBE
K:AMix
L:1/8
Q:1/4=56
M:2/4
    e4
%%setbarnb 1
 |: {/g}A2  {/GdGe}A{/gf}g        | {/ef}ed {/g}e>f | {/gf}g>e {/Gdc}dg     | {/Bd}B{/e}A  {/gBd}B{/e}G   |  !
    {/g}A2  {/GdGe}A{/gf}g        | {/ef}ed {/g}e>f | {/gf}g>e {/Gdc}d{/e}B | {/gef}e{/g}A {/GAG}A \
[1  e       \
%%setbarnb 9
:|2 {/ag}a                        | !
 |: e>f     {/gf}ga               | {/ef}ed {/g}e>f | {/gf}g>e {/Gdc}dg     | {/Bd}B{/e}A  {/gBd}B{/e}G   |  !
 |1 {/g}e>f {/gf}ga               | {/ef}ed {/g}e>f | {/gf}g>e {/Gdc}d{/e}B | {/gef}e{/g}A {/GAG}A{/ga}a :|  !
 |  2       {/g}A2 {/GdGe}A{/gf}g | {/ef}ed {/g}e>f | {/gf}g>e {/Gdc}d{/e}B | {/gef}e{/g}A {/GAG}A        |] !
